dist/img/group_FILL1_wght700_GRAD200_opsz48 1.svg

<svg width="25" height="25" viewBox="0 0 25 25" fill="none" xmlns="http://www.w3.org/2000/svg">
<g opacity="0.5">
<path d="M0.572998 21.6146V18.5937C0.572998 17.8646 0.75963 17.2092 1.13289 16.6276C1.50616 16.046 2.02265 15.6076 2.68237 15.3125C3.98446 14.7569 5.16067 14.3489 6.21102 14.0885C7.26137 13.8281 8.34209 13.6979 9.45321 13.6979C10.599 13.6979 11.6928 13.8281 12.7345 14.0885C13.7761 14.3489 14.948 14.7569 16.2501 15.3125C16.9098 15.5903 17.4306 16.0156 17.8126 16.5885C18.1945 17.1614 18.3855 17.8299 18.3855 18.5937V21.6146H0.572998ZM20.2345 21.6146V18.6458C20.2345 17.5174 19.9523 16.5799 19.3881 15.8333C18.8239 15.0868 18.0817 14.3924 17.1615 13.75C18.2032 13.9236 19.1841 14.1363 20.1042 14.388C21.0244 14.6397 21.797 14.9132 22.422 15.2083C23.0296 15.5382 23.52 16.0026 23.8933 16.6016C24.2666 17.2005 24.4532 17.908 24.4532 18.7239V21.6146H20.2345ZM9.47925 12.1354C8.22925 12.1354 7.22664 11.7578 6.47144 11.0026C5.71623 10.2474 5.33862 9.25346 5.33862 8.02082C5.33862 6.77082 5.72057 5.76388 6.48446 4.99999C7.24834 4.2361 8.24661 3.85416 9.47925 3.85416C10.6945 3.85416 11.6928 4.2361 12.474 4.99999C13.2553 5.76388 13.6459 6.76214 13.6459 7.99478C13.6459 9.24478 13.2553 10.2474 12.474 11.0026C11.6928 11.7578 10.6945 12.1354 9.47925 12.1354ZM19.5313 7.99478C19.5313 9.22742 19.145 10.2257 18.3725 10.9896C17.5999 11.7535 16.606 12.1354 15.3907 12.1354C15.165 12.1354 14.961 12.1224 14.7787 12.0963C14.5964 12.0703 14.3838 12.0139 14.1407 11.9271C14.5921 11.4583 14.9263 10.8941 15.1433 10.2344C15.3603 9.57464 15.4688 8.83679 15.4688 8.02082C15.4688 7.18749 15.3603 6.45398 15.1433 5.8203C14.9263 5.18662 14.5921 4.60068 14.1407 4.06249C14.3317 3.99305 14.54 3.94096 14.7657 3.90624C14.9914 3.87152 15.1997 3.85416 15.3907 3.85416C16.606 3.85416 17.5999 4.24044 18.3725 5.01301C19.145 5.78558 19.5313 6.7795 19.5313 7.99478Z" fill="#00E0FF"/>
</g>
</svg>

<svg width="25" height="25" fill="none" xmlns="http://www.w3.org/2000/svg"><path d="M.573 21.615v-3.021c0-.73.187-1.385.56-1.966.373-.582.89-1.02 1.55-1.316 1.301-.555 2.478-.963 3.528-1.223a13.44 13.44 0 0 1 3.242-.391c1.146 0 2.24.13 3.282.39 1.041.26 2.213.669 3.515 1.225.66.277 1.18.703 1.563 1.275.382.573.573 1.242.573 2.006v3.02H.573Zm19.662 0v-2.97c0-1.128-.283-2.065-.847-2.812-.564-.746-1.306-1.44-2.227-2.083 1.042.174 2.023.386 2.943.638.92.252 1.693.525 2.318.82.608.33 1.098.795 1.471 1.394.374.599.56 1.306.56 2.122v2.89h-4.218Zm-10.756-9.48c-1.25 0-2.252-.377-3.008-1.132-.755-.756-1.132-1.75-1.132-2.982 0-1.25.382-2.257 1.145-3.021.764-.764 1.763-1.146 2.995-1.146 1.216 0 2.214.382 2.995 1.146.781.764 1.172 1.762 1.172 2.995 0 1.25-.39 2.252-1.172 3.008-.781.755-1.78 1.132-2.995 1.132Zm10.052-4.14c0 1.232-.386 2.23-1.159 2.995-.772.764-1.766 1.145-2.981 1.145-.226 0-.43-.013-.612-.039a3.347 3.347 0 0 1-.638-.169 4.37 4.37 0 0 0 1.002-1.693c.217-.66.326-1.397.326-2.213 0-.834-.109-1.567-.326-2.2a5.486 5.486 0 0 0-1.002-1.759c.19-.069.399-.121.625-.156.225-.034.434-.052.625-.052 1.215 0 2.209.386 2.981 1.159.773.773 1.16 1.766 1.16 2.982Z" fill="#00E0FF" opacity=".5"/></svg>
